!!!!SEGMENT: pl-kk--kk-i-2--008_orgas-annibale--vir-inclite-stanislae.krn
!!!cenid: 16xx:1613
!!!COM: Orgas, Annibale
!!!COM-rismid: pe30009564
!!!CDT: ~1585-1629
!!!CNT: Italian
!!!OTL: Vir inclite Stanislae
!!!PDT: 1626
!!!AGN: Sacred
!!!SMS-siglum: PL-Kk
!!!SMS-shelfmark: Kk.I.2
!!!SMS-shelfwork: 008 W
!!!NIFC-rismid: 300258024
!!!URL-scan: http://repozytorium.nifc.pl/skany/pl-kk-nut--i-2
!!!ONB-nifc: skany: C: 0024-0025; A: 0124-0125; T: 0228-0229; B: 0326-0327;
!!!key: e:phr
**kern	**text	**kern	**text	**kern	**text	**kern	**text
*group1	*	*group1	*	*group1	*	*group1	*
*part4	*part4	*part3	*part3	*part2	*part2	*part1	*part1
*staff4	*staff4	*staff3	*staff3	*staff2	*staff2	*staff1	*staff1
*I"BASSVS	*	*I"TENOR	*	*I"ALTVS	*	*I"DISCANTVS	*
*I'[B]	*	*I'[T]	*	*I'[A]	*	*I'[S]	*
*Ibass	*	*Itenor	*	*Ialto	*	*Isoprn	*
*ICvox	*	*ICvox	*	*ICvox	*	*ICvox	*
*clefF4	*	*clefC4	*	*clefC4	*	*clefC3	*
*k[]	*	*k[]	*	*k[]	*	*k[]	*
*e:phr	*	*e:phr	*	*e:phr	*	*e:phr	*
*M2/1	*	*M2/1	*	*M2/1	*	*M2/1	*
*met(C|)	*	*met(C|)	*	*met(C|)	*	*met(C|)	*
=1-	=1-	=1-	=1-	=1-	=1-	=1-	=1-
!LO:TX:t=P:problem=all\right&colon; global	!	!LO:TX:t=P:problem=all\right&colon; global	!	!LO:TX:t=P:problem=all\right&colon; global	!	!LO:TX:t=P:problem=all\right&colon; global	!
*	*	*lig	*	*	*	*	*
!	!	!	!	!LO:TX:t=P:problem=kreska pseudotaktowa	!	!LO:TX:t=P:problem=kreska pseudotaktowa	!
1AA	Vir	1E	Vir	00r	.	1r	.
*2\right	*	*2\right	*	*2\right	*	*2\right	*
2.D/	.	1F	.	.	.	1A	Vir
!LO:TX:t=P:problem=kreska pseudotaktowa	!	!	!	!	!	!	!
4C/	in-	.	.	.	.	.	.
*	*	*Xlig	*	*	*	*	*
=2	=2	=2-	=2-	=2-	=2-	=2-	=2-
4BB/	.	0G	.	.	.	2.d\	in-
4AA/	.	.	.	.	.	.	.
1GG	.	.	.	.	.	.	.
!	!	!	!	!	!	!LO:TX:t=P:problem=kreska pseudotaktowa	!
.	.	.	.	.	.	4c/	.
.	.	.	.	.	.	4B/	.
.	.	.	.	.	.	4A/	.
!	!	!	!	!	!	!LO:TX:t=P:problem=kreska pseudotaktowa	!
2BB/	-cly-	.	.	.	.	2G/	.
=3-	=3-	=3-	=3-	=3	=3	=3	=3
*lig	*	*lig	*	*	*	*	*
1D	-te	1F	.	1D	Vir	2A/	.
.	.	.	.	.	.	1d	.
!LO:TX:t=P:problem=kreska pseudotaktowa	!	!	!	!	!	!	!
1AA	.	1E	.	2.A/	in-	.	.
!	!	!	!	!	!	!LO:TX:t=P:problem=kreska pseudotaktowa	!
.	.	.	.	.	.	2c/	.
.	.	.	.	4G/	.	.	.
*Xlig	*	*Xlig	*	*	*	*	*
=4	=4	=4-	=4-	=4-	=4-	=4	=4
1r	.	1D	in-	4F/	.	2f\	.
.	.	.	.	4E/	.	.	.
.	.	.	.	1D	.	1g	.
*	*	*lig	*	*	*	*	*
1D	Vir	1D	-cli-	.	.	.	.
!	!	!	!	!LO:TX:t=P:problem=kreska pseudotaktowa	!	!LO:TX:t=P:problem=kreska pseudotaktowa	!
.	.	.	.	2A/	.	2f\	-cli-
=5-	=5-	=5-	=5-	=5	=5	=5	=5
2.G\	.	1E	.	2.G/	.	2g\	-te
.	.	.	.	.	.	2e\	Vir
!LO:TX:t=P:problem=kreska pseudotaktowa	!	!	!	!	!	!	!
4F\	in-	.	.	4A/	.	.	.
*	*	*Xlig	*	*	*	*	*
!	!	!LO:TX:t=P:problem=kreska pseudotaktowa	!	!	!	!	!
4E\	.	1E	-te	2B\	.	2.g\	in-
4D/	.	.	.	.	.	.	.
1C/	.	.	.	2c\	-cli-	.	.
!	!	!	!	!	!	!LO:TX:t=P:problem=kreska pseudotaktowa	!
.	.	.	.	.	.	4f\	.
=6-	=6-	=6	=6	=6-	=6-	=6	=6
*	*	*lig	*	*	*	*	*
!	!	!	!	!LO:TX:t=P:problem=kreska pseudotaktowa	!	!	!
.	.	1E	Sta-	1G	-te	4e\	.
.	.	.	.	.	.	4d\	.
!LO:TX:t=P:problem=kreska pseudotaktowa	!	!	!	!	!	!LO:TX:t=P:problem=kreska pseudotaktowa	!
2E\	-cli-	.	.	.	.	2c/	.
1D	-te	1F	.	2r	.	4d\	.
.	.	.	.	.	.	4A/	.
.	.	.	.	2D/	Vir	1d\	.
*	*	*Xlig	*	*	*	*	*
=7-	=7-	=7-	=7-	=7-	=7-	=7-	=7-
*	*	*lig	*	*	*	*	*
2AA/	Sta-	1E	.	2.A/	in-	.	.
!LO:TX:t=P:problem=kreska pseudotaktowa	!	!	!	!	!	!LO:TX:t=P:problem=kreska pseudotaktowa	!
2C/	-ni-	.	.	.	.	2c/	-cli-
.	.	.	.	4G/	.	.	.
4D/	.	1D	.	4F/	.	2A/	-te
4E\	-ſla-	.	.	4E/	.	.	.
4F\	.	.	.	1D/	.	1A/	in
!LO:TX:t=P:problem=kreska pseudotaktowa	!	!	!	!	!	!	!
4G\	.	.	.	.	.	.	.
*	*	*Xlig	*	*	*	*	*
=8	=8	=8-	=8-	=8-	=8-	=8-	=8-
*	*	*lig	*	*	*	*	*
4A\	.	1F	.	.	.	.	.
4B\	.	.	.	.	.	.	.
!LO:SIC:v:t=custos c	!	!	!	!	!	!	!
!LO:LB:g=original	!	!	!	!	!	!	!
!	!	!	!	!	!	!LO:TX:t=P:problem=kreska pseudotaktowa	!
1c	.	.	.	2A/	-cli-	2A/	cli-
!	!	!	!	!LO:TX:t=P:problem=kreska pseudotaktowa	!	!	!
.	.	1G	.	1G	-te	1d	-te
2B\	-e	.	.	.	.	.	.
*	*	*Xlig	*	*	*	*	*
!	!	!	!	!	!	!LO:SIC:v:t=custos c	!
!	!	!	!	!	!	!LO:LB:g=original	!
=9-	=9-	=9-	=9-	=9	=9	=9-	=9-
!LO:TX:t=P:problem=kreska pseudotaktowa	!	!	!	!	!	!	!
*	*	*lig	*	*	*	*	*
!	!	!	!	!LO:TX:t=P:problem=kreska pseudotaktowa	!	!	!
1c	.	1A	.	1r	.	2c/	Sta-
!	!	!	!	!	!	!LO:TX:t=P:problem=kreska pseudotaktowa	!
.	.	.	.	.	.	2A/	-ni-
0r	.	1G	.	2C/	Sta-	2.c/	-ſla-
!	!	!	!	!LO:TX:t=P:problem=kreska pseudotaktowa	!	!	!
.	.	.	.	2E/	-ni-	.	.
.	.	.	.	.	.	4B/	.
*	*	*Xlig	*	*	*	*	*
=10-	=10-	=10-	=10-	=10	=10	=10-	=10-
*	*	*lig	*	*	*	*	*
.	.	1F	-ni-	4F/	-ſla-	4A/	.
.	.	.	.	4G/	.	4B/	.
!	!	!	!	!LO:SIC:v:t=custos A	!	!	!
!	!	!	!	!LO:PB:g=original	!	!	!
.	.	.	.	4A/	.	4c/	.
!	!	!	!	!LO:TX:t=P:problem=kreska pseudotaktowa	!	!LO:TX:t=P:problem=kreska pseudotaktowa	!
.	.	.	.	4B\	.	4d\	.
!LO:TX:t=P:problem=kreska pseudotaktowa	!	!	!	!	!	!	!
1r	.	1E	.	4c\	.	2.e\	.
.	.	.	.	4G/	.	.	.
.	.	.	.	1c\	.	.	.
.	.	.	.	.	.	4f\	.
*	*	*Xlig	*	*	*	*	*
=11	=11	=11-	=11-	=11-	=11-	=11-	=11-
*	*	*lig	*	*	*	*	*
2GG/	Sta-	1D	-ſla-	.	.	1g	.
!	!	!	!	!LO:TX:t=P:problem=kreska pseudotaktowa	!	!	!
2BB/	-ni-	.	.	2B\	.	.	.
!	!	!	!	!	!	!LO:TX:t=P:problem=kreska pseudotaktowa	!
4AA/	-ſla-	1E	.	1c	-e	1e	-e
4BB/	.	.	.	.	.	.	.
4C/	.	.	.	.	.	.	.
!LO:TX:t=P:problem=kreska pseudotaktowa	!	!	!	!	!	!	!
4D/	.	.	.	.	.	.	.
*	*	*Xlig	*	*	*	*	*
=12	=12	=12-	=12-	=12-	=12-	=12	=12
!	!	!LO:TX:t=P:problem=kreska pseudotaktowa	!	!	!	!	!
4E\	.	1E	-e	2B\	Sta-	1r	.
4F\	.	.	.	.	.	.	.
!	!	!	!	!LO:TX:t=P:problem=kreska pseudotaktowa	!	!	!
2.G\	.	.	.	2G/	-ni-	.	.
!	!	!LO:SIC:v:t=custos G	!	!	!	!	!
!	!	!LO:PB:g=original	!	!	!	!	!
*	*	*lig	*	*	*	*	*
.	.	1G	Vi-	4B\	-ſla-	2G/	Sta-
4F\	.	.	.	4A/	.	.	.
!LO:TX:t=P:problem=kreska pseudotaktowa	!	!	!	!	!	!	!
2E\	.	.	.	4G/	.	2B/	-ni-
.	.	.	.	4F/	.	.	.
=13	=13	=13-	=13-	=13-	=13-	=13-	=13-
*lig	*	*	*	*	*	*	*
1AA	.	1A	.	4E/	.	4A/	-ſla-
.	.	.	.	4D/	.	4B/	.
!	!	!	!	!LO:TX:t=P:problem=kreska pseudotaktowa	!	!	!
.	.	.	.	2C/	.	4c/	.
.	.	.	.	.	.	4d\	.
*	*	*Xlig	*	*	*	*	*
*	*	*lig	*	*	*	*	*
1GG	.	1B	.	2.G/	.	4e\	.
.	.	.	.	.	.	4f\	.
.	.	.	.	.	.	1g\	.
.	.	.	.	4F/	.	.	.
*Xlig	*	*	*	*	*	*	*
=14-	=14-	=14-	=14-	=14-	=14-	=14-	=14-
1AA	-e	1c	.	2E/	.	.	.
!	!	!	!	!	!	!LO:TX:t=P:problem=kreska pseudotaktowa	!
!	!	!	!	!	!	!LO:TX:b:t=P:problem=# below	!
.	.	.	.	4D/	.	2f#X\	.
.	.	.	.	4C/	.	.	.
*	*	*	*	*lig	*	*	*
*	*	*Xlig	*	*	*	*	*
!	!	!LO:TX:t=P:problem=kreska pseudotaktowa	!	!	!	!LO:TX:t=P:problem=kreska pseudotaktowa	!
2GG/	Sta-	1B	-ta	1D	.	1g	-e
!LO:TX:t=P:problem=kreska pseudotaktowa	!	!	!	!	!	!	!
2BB/	-ni-	.	.	.	.	.	.
=15	=15	=15	=15	=15-	=15-	=15-	=15-
*	*	*lig	*	*	*	*	*
4AA/	-ſla-	1c	ſi-	1C	.	2r	.
4BB/	.	.	.	.	.	.	.
4C/	.	.	.	.	.	2.g\	Vi-
4D/	.	.	.	.	.	.	.
*	*	*	*	*Xlig	*	*	*
!	!	!	!	!LO:TX:t=P:problem=kreska pseudotaktowa	!	!	!
4E\	.	1B	.	1G	-e	.	.
4F\	.	.	.	.	.	4g\	-ta
!	!	!	!	!	!	!LO:TX:t=P:problem=kreska pseudotaktowa	!
1G\	.	.	.	.	.	2g\	ſi-
*	*	*Xlig	*	*	*	*	*
=16-	=16-	=16-	=16-	=16	=16	=16	=16
*	*	*lig	*	*	*	*	*
.	.	1A	.	2r	.	1.d	-gnis
!LO:TX:b:t=P:problem=# below	!	!	!	!	!	!	!
!LO:TX:t=P:problem=kreska pseudotaktowa	!	!	!	!	!	!	!
2F#X\	.	.	.	2.d\	Vi-	.	.
!LO:TX:t=P:problem=kreska pseudotaktowa	!	!	!	!	!	!	!
1G	-e	1G	.	.	.	.	.
.	.	.	.	4d\	-ta	.	.
*	*	*	*	*	*	*	*ij
!	!	!	!	!LO:TX:t=P:problem=kreska pseudotaktowa	!	!	!
.	.	.	.	2d\	ſi-	2.d\	Vi-
*	*	*Xlig	*	*	*	*	*
=17	=17	=17-	=17-	=17-	=17-	=17-	=17-
!LO:TX:t=P:problem=kreska pseudotaktowa	!	!	!	!	!	!	!
1r	.	1A	.	4D/	-gnis	.	.
.	.	.	.	4E/	.	4d\	-ta
.	.	.	.	4F/	.	2d\	ſi-
.	.	.	.	4D/	.	.	.
!	!	!LO:TX:t=P:problem=kreska pseudotaktowa	!	!	!	!LO:TX:t=P:problem=kreska pseudotaktowa	!
2r	.	1G	-gnis	2.E/	.	1G	-gnis
*	*	*	*	*	*	*	*Xij
2.C/	Vi-	.	.	.	.	.	.
!	!	!	!	!LO:TX:t=P:problem=kreska pseudotaktowa	!	!	!
.	.	.	.	4F/	.	.	.
=18-	=18-	=18	=18	=18	=18	=18-	=18-
*	*	*lig	*	*	*	*	*
.	.	1c	paſ-	2G/	.	1r	.
4C/	-ta	.	.	.	.	.	.
!LO:TX:t=P:problem=kreska pseudotaktowa	!	!	!	!	!	!	!
2C/	ſi-	.	.	2.G/	Vi-	.	.
2GG/	-gnis	1B	.	.	.	2r	.
.	.	.	.	4G/	-ta	.	.
!	!	!	!	!LO:TX:t=P:problem=kreska pseudotaktowa	!	!	!
1G\	paſ-	.	.	2G/	ſi-	2.d\	Vi-
*	*	*Xlig	*	*	*	*	*
=19-	=19-	=19-	=19-	=19	=19	=19-	=19-
*	*	*lig	*	*	*	*	*
.	.	1A	.	2D/	-gnis	.	.
.	.	.	.	.	.	4d\	-ta
!	!	!	!	!	!	!LO:SIC:v:t=custos d	!
!	!	!	!	!	!	!LO:LB:g=original	!
!LO:TX:t=P:problem=kreska pseudotaktowa	!	!	!	!	!	!LO:TX:t=P:problem=kreska pseudotaktowa	!
2F\	-si-	.	.	1d	paſ-	2d\	ſi-
1E	-o-	1G	.	.	.	2G/	-gnis
!	!	!	!	!LO:TX:t=P:problem=kreska pseudotaktowa	!	!	!
.	.	.	.	2c\	-si-	1g\	paſ-
*	*	*Xlig	*	*	*	*	*
!	!	!	!	!LO:SIC:v:t=custos d	!	!	!
!	!	!	!	!LO:LB:g=original	!	!	!
=20-	=20-	=20-	=20-	=20	=20	=20-	=20-
*	*	*lig	*	*	*	*	*
2D/	-ne	1A	.	2.d\	-o-	.	.
!LO:SIC:v:t=custos F	!	!	!	!	!	!	!
!LO:LB:g=original	!	!	!	!	!	!	!
!	!	!	!	!	!	!LO:TX:t=P:problem=kreska pseudotaktowa	!
1F	paſ-	.	.	.	.	2f\	-si-
!	!	!	!	!LO:TX:t=P:problem=kreska pseudotaktowa	!	!	!
.	.	.	.	4c\	.	.	.
.	.	1G	.	2B\	.	2g\	-o-
!LO:TX:t=P:problem=kreska pseudotaktowa	!	!	!	!	!	!	!
2E\	-si-	.	.	4A/	.	2G/	.
!	!	!	!	!LO:TX:t=P:problem=kreska pseudotaktowa	!	!	!
.	.	.	.	4G/	.	.	.
*	*	*Xlig	*	*	*	*	*
=21	=21	=21-	=21-	=21	=21	=21-	=21-
*	*	*lig	*	*	*	*	*
1D	-o-	1F	-si-	2A/	.	1d	.
.	.	.	.	2B\	.	.	.
!	!	!	!	!	!	!LO:TX:t=P:problem=kreska pseudotaktowa	!
2C/	-ne	1E	.	2c\	.	1G	-ne
1G\	paſ-	.	.	1B\	.	.	.
*	*	*Xlig	*	*	*	*	*
=22-	=22-	=22-	=22-	=22-	=22-	=22-	=22-
*	*	*lig	*	*	*	*	*
.	.	1D	-o-	.	.	2r	.
!	!	!	!	!LO:TX:t=P:problem=kreska pseudotaktowa	!	!	!
2F\	-si-	.	.	2A/	.	1d	paſ-
!LO:TX:t=P:problem=kreska pseudotaktowa	!	!	!	!	!	!	!
!	!	!	!	!LO:TX:b:t=P:problem=# below	!	!	!
0E	-o-	1E	.	2G#X/	.	.	.
.	.	.	.	1A\	.	2c/	-si-
*	*	*Xlig	*	*	*	*	*
=23-	=23-	=23-	=23-	=23-	=23-	=23-	=23-
!	!	!LO:TX:t=P:problem=kreska pseudotaktowa	!	!	!	!LO:TX:t=P:problem=kreska pseudotaktowa	!
.	.	1E	-ne	.	.	1B	-o-
!	!	!	!	!LO:TX:t=P:problem=kreska pseudotaktowa	!	!	!
!	!	!	!	!LO:TX:b:t=P:problem=# below	!	!	!
.	.	.	.	2G#X/	.	.	.
2AA,>/	-ne	1C	ple-	1A	-ne	1.A	-ne
2.A\	ple-	.	.	.	.	.	.
=24-	=24-	=24-	=24-	=24-	=24-	=24-	=24-
*	*	*lig	*	*	*	*	*
.	.	1D	-bem	2.A/	ple-	.	.
4G\	.	.	.	.	.	.	.
!	!	!	!	!	!	!LO:TX:t=P:problem=kropka przez kreskę	!
!	!	!	!	!	!	!LO:TX:t=P:problem=kreska pseudotaktowa	!
4F\	.	.	.	.	.	2.a\	ple-
!LO:TX:t=P:problem=kreska pseudotaktowa	!	!	!	!	!	!	!
4E\	.	.	.	4Gny/	.	.	.
!	!	!LO:TX:t=P:problem=kreska pseudotaktowa	!	!	!	!	!
1.D	.	1F	.	4F/	.	.	.
.	.	.	.	4E/	.	4g\	.
!	!	!	!	!LO:TX:t=P:problem=kreska pseudotaktowa	!	!	!
.	.	.	.	2D/	.	4f\	.
.	.	.	.	.	.	4e\	.
*	*	*Xlig	*	*	*	*	*
=25-	=25-	=25	=25	=25	=25	=25-	=25-
.	.	1F	tu-	1A	-bem	2d\	.
!LO:TX:t=P:problem=kreska pseudotaktowa	!	!	!	!	!	!LO:TX:t=P:problem=kreska pseudotaktowa	!
2AA/	-bem	.	.	.	.	2c/	-bem
*	*	*lig	*	*	*	*	*
2.C/	ple-	1E	-am	2.e\	ple-	1c	tu-
!	!	!	!	!LO:TX:t=P:problem=kreska pseudotaktowa	!	!	!
4BB/	.	.	.	4d\	.	.	.
=26-	=26-	=26-	=26-	=26	=26	=26-	=26-
!	!	!LO:TX:t=P:problem=kreska pseudotaktowa	!	!	!	!	!
4AA/	.	1F	.	4c\	.	2c/	-am
4GG/	.	.	.	4B\	.	.	.
!LO:TX:t=P:problem=kreska pseudotaktowa	!	!	!	!	!	!	!
2AA/	-bem	.	.	2c\	.	1f	ple-
*	*	*Xlig	*	*	*	*	*
0GG	tu-	1G	pa-	2B\	-bem	.	.
!	!	!	!	!	!	!LO:TX:t=P:problem=kreska pseudotaktowa	!
.	.	.	.	1c\	tu-	2e\	-be(m)
=27-	=27-	=27-	=27-	=27-	=27-	=27	=27
*	*	*lig	*	*	*	*	*
.	.	1D	-stor	.	.	1d	tu-
!	!	!	!	!LO:TX:t=P:problem=kreska pseudotaktowa	!	!	!
.	.	.	.	2B\	.	.	.
!	!	!LO:TX:t=P:problem=kreska pseudotaktowa	!	!LO:TX:t=P:problem=kreska pseudotaktowa	!	!	!
2C/	-am	1C	.	1c	-am	1e	-am
1G\	pa-	.	.	.	.	.	.
*	*	*Xlig	*	*	*	*	*
!	!	!LO:SIC:v:t=custos D	!	!	!	!	!
!	!	!LO:LB:g=original	!	!	!	!	!
=28-	=28-	=28-	=28-	=28	=28	=28-	=28-
*	*	*lig	*	*	*	*	*
.	.	1D	bo-	2r	.	4d\	pa-
.	.	.	.	.	.	4c/	.
!LO:TX:t=P:problem=kreska pseudotaktowa	!	!	!	!	!	!	!
2F\	-ſtor	.	.	1d	pa-	4B/	.
!	!	!	!	!	!	!LO:TX:t=P:problem=kreska pseudotaktowa	!
.	.	.	.	.	.	4A/	.
0E	bo-	1E	.	.	.	2G/	.
!	!	!	!	!LO:TX:t=P:problem=kreska pseudotaktowa	!	!	!
.	.	.	.	2c\	-ſtor	1A/	ſtor
*	*	*Xlig	*	*	*	*	*
=29-	=29-	=29-	=29-	=29-	=29-	=29-	=29-
!	!	!LO:TX:t=P:problem=kreska pseudotaktowa	!	!	!	!	!
.	.	1E	-ne	2.B\	bo-	.	.
!	!	!	!	!	!	!LO:TX:t=P:problem=kreska pseudotaktowa	!
!	!	!	!	!	!	!LO:TX:b:t=P:problem=# below	!
.	.	.	.	.	.	2G#X/	bo-
.	.	.	.	8A\L	.	.	.
!	!	!	!	!LO:TX:t=P:problem=kreska pseudotaktowa	!	!	!
.	.	.	.	8B\J	.	.	.
*	*	*lig	*	*	*	*	*
1AA	-ne	1E	fo-	4c\	.	2A/	-ne
.	.	.	.	4B\	.	.	.
!	!	!	!	!	!	!LO:SIC:v:t=custos e	!
!	!	!	!	!	!	!LO:LB:g=original	!
!	!	!	!	!	!	!LO:TX:t=P:problem=kreska pseudotaktowa	!
.	.	.	.	4A/	.	2e\	fo-
!	!	!	!	!LO:TX:t=P:problem=kreska pseudotaktowa	!	!	!
.	.	.	.	4G/	.	.	.
!	!	!	!	!LO:SIC:v:t=custos F	!	!	!
!	!	!	!	!LO:LB:g=original	!	!	!
=30-	=30-	=30-	=30-	=30	=30	=30-	=30-
2D/	pa-	1F	.	4F/	.	2A/	-ve
.	.	.	.	4G/	.	.	.
!	!	!	!	!LO:TX:t=P:problem=kreska pseudotaktowa	!	!	!
4C/	.	.	.	2A/	.	4c/	be-
!LO:TX:t=P:problem=kreska pseudotaktowa	!	!	!	!	!	!LO:TX:t=P:problem=kreska pseudotaktowa	!
4BB/	.	.	.	.	.	4d\	-ne-
*	*	*Xlig	*	*	*	*	*
*	*	*lig	*	*	*	*	*
4C/	.	1E	.	2G/	-ne	4e\	-di-
4D/	.	.	.	.	.	4f\	-cti-
!	!	!	!	!LO:TX:t=P:problem=kreska pseudotaktowa	!	!	!
4E\	.	.	.	2G/	fo-	1g\	-o-
4C/	.	.	.	.	.	.	.
=31-	=31-	=31-	=31-	=31	=31	=31-	=31-
1D	.	1D	.	2d\	-ve	.	.
!	!	!	!	!	!	!LO:TX:t=P:problem=kreska pseudotaktowa	!
!	!	!	!	!	!	!LO:TX:b:t=P:problem=# below	!
.	.	.	.	4D/	be-	2f#X\	.
!	!	!	!	!LO:TX:t=P:problem=kreska pseudotaktowa	!	!	!
.	.	.	.	4D/	-ne-	.	.
*	*	*Xlig	*	*	*	*	*
*	*	*lig	*	*	*	*	*
2C/	-ſtor	1G	.	4E/	-dic-	2g\	-ne
.	.	.	.	4F/	-ti-	.	.
!LO:TX:t=P:problem=kreska pseudotaktowa	!	!	!	!	!	!	!
2BB/	bo	.	.	1G/	-o-	2.d\	be-
=32	=32	=32-	=32-	=32-	=32-	=32-	=32-
2D/	-ne	1A	.	.	.	.	.
.	.	.	.	.	.	4d\	-ne-
!	!	!	!	!LO:TX:t=P:problem=kreska pseudotaktowa	!	!	!
!	!	!	!	!LO:TX:b:t=P:problem=# below	!	!	!
2D/	fo-	.	.	2F#X/	.	4A/	-dic-
!	!	!	!	!	!	!LO:TX:t=P:problem=kreska pseudotaktowa	!
.	.	.	.	.	.	4A/	-ti-
*	*	*Xlig	*	*	*	*	*
!LO:SIC:v:t=custos GG	!	!	!	!	!	!	!
!LO:LB:g=original	!	!	!	!	!	!	!
!	!	!LO:TX:t=P:problem=kreska pseudotaktowa	!	!	!	!	!
2GG/	-ve	1G	-ve	1G	-ne.	2B/	-o-
4C/	be-	.	.	.	.	2c/	-ne
!LO:TX:t=P:problem=kreska pseudotaktowa	!	!	!	!	!	!	!
4D/	-ne-	.	.	.	.	.	.
=33	=33	=33	=33	=33-	=33-	=33-	=33-
4E\	-dic-	1G	be-	4G/	be-	2r	.
4F\	.	.	.	4A/	-ne-	.	.
!	!	!	!	!	!	!LO:TX:t=P:problem=kreska pseudotaktowa	!
1G	-ti-	.	.	4B\	-dic-	2d\	fo-
!	!	!	!	!LO:TX:t=P:problem=kreska pseudotaktowa	!	!	!
.	.	.	.	4c\	-ti-	.	.
*	*	*lig	*	*	*	*	*
.	.	1B	-ne-	4d\	-o-	2Gny/	-ve
.	.	.	.	4c\	.	.	.
2GG/	-o-	.	.	4B\	.	4d\	be-
!	!	!	!	!LO:TX:t=P:problem=kreska pseudotaktowa	!	!LO:TX:t=P:problem=kreska pseudotaktowa	!
.	.	.	.	4A/	.	4d\	-ne-
=34-	=34-	=34-	=34-	=34	=34	=34	=34
!LO:TX:t=P:problem=kreska pseudotaktowa	!	!	!	!	!	!	!
1C	-ne	1c	.	4G/	.	4e\	-dic-
.	.	.	.	4F/	.	4f\	-ti-
.	.	.	.	2E/	.	1g	-o-
*	*	*Xlig	*	*	*	*	*
!	!	!	!	!LO:TX:t=P:problem=kreska pseudotaktowa	!	!	!
2r	.	1d	.	1D	-ne	.	.
!	!	!	!	!	!	!LO:TX:b:t=P:problem=# below	!
2D/	fo-	.	.	.	.	2f#X\	.
=35-	=35-	=35-	=35-	=35	=35	=35-	=35-
!	!	!	!	!	!	!LO:TX:t=P:problem=kreska pseudotaktowa	!
2G\	-ve	0d	di-	2r	.	1g	-ne
4GG/	be-	.	.	2D/	fo-	.	.
!LO:TX:t=P:problem=kreska pseudotaktowa	!	!	!	!	!	!	!
4AA/	-ne-	.	.	.	.	.	.
4BB/	-dic-	.	.	2G/	-ve	4d\	be-
4C/	-ti-	.	.	.	.	4e\	-ne-
2D/	-o-	.	.	4D/	be-	4fny\	-dic-
!	!	!	!	!LO:TX:t=P:problem=kreska pseudotaktowa	!	!	!
.	.	.	.	4E/	-ne-	4g\	-ti-
=36-	=36-	=36-	=36-	=36	=36	=36-	=36-
!LO:TX:t=P:problem=kreska pseudotaktowa	!	!	!	!	!	!	!
*	*	*lig	*	*	*	*	*
1AA	-ne	1c	.	4F/	-di-	2a\	-o-
.	.	.	.	4G/	.	.	.
.	.	.	.	1A	.	4g\	.
.	.	.	.	.	.	4f\	.
2r	.	1B	.	.	.	4e\	.
.	.	.	.	.	.	4d\	.
*	*ij	*	*	*	*	*	*
!	!	!	!	!LO:TX:t=P:problem=kreska pseudotaktowa	!	!	!
!	!	!	!	!LO:TX:b:t=P:problem=# below	!	!	!
2E\	fo-	.	.	2G#X/	.	2e\	.
*	*	*Xlig	*	*	*	*	*
=37-	=37-	=37-	=37-	=37	=37	=37-	=37-
*	*	*lig	*	*	*	*	*
!	!	!	!	!	!	!LO:TX:t=P:problem=kreska pseudotaktowa	!
2AA/	-ve	1c	.	1A	-ne	1c	-ne
4C/	be-	.	.	.	.	.	.
!LO:TX:t=P:problem=kreska pseudotaktowa	!	!	!	!	!	!	!
4D/	-ne-	.	.	.	.	.	.
4E\	-dic-	1B	.	4G/	be-	2r	.
4F\	.	.	.	4A/	-ne-	.	.
1G\	-ti-	.	.	4B\	-dic-	2e\	fo-
.	.	.	.	4c\	-ti-	.	.
*	*	*Xlig	*	*	*	*	*
=38-	=38-	=38-	=38-	=38-	=38-	=38-	=38-
*	*	*lig	*	*	*	*	*
.	.	1A	.	2d\	-o-	2A/	-ve
!	!	!	!	!LO:SIC:v:t=custos A	!	!LO:SIC:v:t=custos c	!
!	!	!	!	!LO:LB:g=original	!	!LO:LB:g=original	!
!	!	!	!	!LO:TX:t=P:problem=kreska pseudotaktowa	!	!	!
2F\	-o-	.	.	2A/	.	4c/	be-
!	!	!	!	!	!	!LO:TX:t=P:problem=kreska pseudotaktowa	!
.	.	.	.	.	.	4d\	-ne-
!LO:TX:t=P:problem=kreska pseudotaktowa	!	!	!	!	!	!	!
!	!	!	!	!LO:TX:t=P:problem=kreska pseudotaktowa	!	!	!
1G	-ne	1G	.	1B	-ne	4e\	-dic-
.	.	.	.	.	.	4f\	-ti-
.	.	.	.	.	.	1g\	-o-
*	*Xij	*Xlig	*	*	*	*	*
=39	=39	=39-	=39-	=39	=39	=39-	=39-
*	*	*lig	*	*	*	*	*
2.D/	be-	1A	-cti-	2r	.	.	.
!	!	!	!	!	!	!LO:TX:t=P:problem=kreska pseudotaktowa	!
!	!	!	!	!	!	!LO:TX:b:t=P:problem=# below	!
.	.	.	.	2A/	fo-	2f#X\	.
4D/	-ne-	.	.	.	.	.	.
2E\	-dic-	1G	.	2E/	-ve	2g\	.
2C/	-ti-	.	.	4G/	be-	2e\	-ne
!	!	!	!	!LO:TX:t=P:problem=kreska pseudotaktowa	!	!	!
.	.	.	.	4A/	-ne-	.	.
*	*	*Xlig	*	*	*	*	*
=40-	=40-	=40-	=40-	=40	=40	=40-	=40-
*	*	*lig	*	*	*	*	*
1D	-o-	1F	.	4B\	-dic-	2r	.
.	.	.	.	4c\	-ti-	.	.
!	!	!	!	!	!	!LO:TX:t=P:problem=kreska pseudotaktowa	!
.	.	.	.	1d	-o-	2A/	fo-
!LO:TX:t=P:problem=kreska pseudotaktowa	!	!	!	!	!	!	!
1AA	-ne	1E	.	.	.	2e\	-ve
!	!	!	!	!LO:TX:t=P:problem=kreska pseudotaktowa	!	!	!
!	!	!	!	!LO:TX:b:t=P:problem=# below	!	!	!
.	.	.	.	2c#X\	.	4E/	be-
!	!	!	!	!	!	!LO:TX:t=P:problem=kreska pseudotaktowa	!
.	.	.	.	.	.	4E/	-ne-
*	*	*Xlig	*	*	*	*	*
=41	=41	=41-	=41-	=41	=41	=41	=41
*	*	*lig	*	*	*	*	*
1r	.	1D	-o-	2d\	ne	4F/	-dic-
.	.	.	.	.	.	4G/	-ti-
.	.	.	.	4d\	be-	1A	-o-
.	.	.	.	4c\	-ne-	.	.
2r	.	1E	.	4B\	-dic-	.	.
.	.	.	.	4A/	-ti-	.	.
!LO:TX:t=P:problem=kreska pseudotaktowa	!	!	!	!	!	!	!
!	!	!	!	!	!	!LO:TX:t=P:problem=kreska pseudotaktowa	!
2E\	fo-	.	.	2B\	-o-	2G#X/	.
*	*	*Xlig	*	*	*	*	*
!LO:SIC:v:t=custos AA	!	!	!	!	!	!	!
!LO:PB:g=original	!	!	!	!	!	!	!
=42-	=42-	=42-	=42-	=42-	=42-	=42	=42
!	!	!LO:TX:t=P:problem=kreska pseudotaktowa	!	!LO:TX:t=P:problem=kreska pseudotaktowa	!	!	!
2AA/	-ve	1E	-ne	1A	-ne	2A/	-ne
4C/	be-	.	.	.	.	4E/	be-
!LO:TX:t=P:problem=kreska pseudotaktowa	!	!	!	!	!	!	!
4D/	-ne-	.	.	.	.	4F/	-ne-
4E\	-dic-	1E	gu-	1r	.	4G/	-dic-
4F\	-ti-	.	.	.	.	4A/	-ti-
1G\	-o-	.	.	.	.	4B/	-o-
!	!	!	!	!	!	!LO:TX:t=P:problem=kreska pseudotaktowa	!
.	.	.	.	.	.	4G/	.
!	!	!LO:SIC:v:t=custos D	!	!	!	!	!
!	!	!LO:LB:g=original	!	!	!	!	!
=43-	=43-	=43-	=43-	=43	=43	=43	=43
*	*	*lig	*	*	*	*	*
.	.	1D	-ber-	2r	.	1A	.
!LO:TX:b:t=P:problem=# below	!	!	!	!	!	!	!
!LO:TX:t=P:problem=kreska pseudotaktowa	!	!	!	!LO:TX:t=P:problem=kreska pseudotaktowa	!	!	!
2F#X\	.	.	.	2A/	fo-	.	.
!	!	!	!	!	!	!LO:TX:t=P:problem=kreska pseudotaktowa	!
1G	-ne	1E	.	2E/	-ve	1G	-ne
.	.	.	.	4G/	be-	.	.
!	!	!	!	!LO:TX:t=P:problem=kreska pseudotaktowa	!	!	!
.	.	.	.	4A/	-ne-	.	.
*	*	*Xlig	*	*	*	*	*
=44-	=44-	=44-	=44-	=44	=44	=44	=44
*	*	*lig	*	*	*	*	*
1D	gu-	1F	.	4B\	-dic-	1r	.
.	.	.	.	4c\	-ti-	.	.
.	.	.	.	1d	-o-	.	.
1AA	-ber-	1E	.	.	.	2A/	gu-
!	!	!	!	!LO:TX:b:t=P:problem=# below	!	!	!
.	.	.	.	2c#X\	.	2.A/	-ber-
*	*	*Xlig	*	*	*	*	*
=45-	=45-	=45-	=45-	=45-	=45-	=45-	=45-
!LO:TX:t=P:problem=kreska pseudotaktowa	!	!	!	!LO:TX:t=P:problem=kreska pseudotaktowa	!	!	!
1D	-na	1D	.	1d	ne	.	.
.	.	.	.	.	.	4A/	-na
!	!	!	!	!	!	!LO:TX:t=P:problem=kreska pseudotaktowa	!
.	.	.	.	.	.	2A/	pro-
!	!	!LO:TX:t=P:problem=kreska pseudotaktowa	!	!LO:TX:t=P:problem=kreska pseudotaktowa	!	!	!
2AA/	gu-	1C	-na	1r	.	2e\	-te-
2.AA/	-ber-	.	.	.	.	2e\	-cti-
=46-	=46-	=46	=46	=46	=46	=46-	=46-
*	*	*lig	*	*	*	*	*
.	.	1E	pro-	2A/	gu-	2.c/	-o-
4AA/	-na	.	.	.	.	.	.
!LO:TX:t=P:problem=kreska pseudotaktowa	!	!	!	!	!	!	!
2AA/	p(ro)-	.	.	2.A/	-ber-	.	.
.	.	.	.	.	.	8B/L	.
!	!	!	!	!	!	!LO:TX:t=P:problem=kreska pseudotaktowa	!
.	.	.	.	.	.	8c/J	.
!	!	!	!	!	!	!LO:SIC:v:t=custos d	!
!	!	!	!	!	!	!LO:PB:g=original	!
2D/	-tec-	1F	.	.	.	1d	-ne
.	.	.	.	4A/	-na	.	.
!	!	!	!	!LO:TX:t=P:problem=kreska pseudotaktowa	!	!	!
2D/	-ti-	.	.	2A/	pro-	.	.
*	*	*Xlig	*	*	*	*	*
=47-	=47-	=47-	=47-	=47	=47	=47-	=47-
*	*	*lig	*	*	*	*	*
!	!	!	!	!	!	!LO:TX:t=P:problem=kreska pseudotaktowa	!
1GG	-o-	1G	.	2d\	-tec-	1B	gu-
.	.	.	.	2d\	-ti-	.	.
!LO:TX:t=P:problem=kreska pseudotaktowa	!	!	!	!	!	!	!
1D	-ne	1F	.	1A	-o-	2d\	-ber-
.	.	.	.	.	.	2.d\	-na
*	*	*Xlig	*	*	*	*	*
=48	=48	=48-	=48-	=48-	=48-	=48-	=48-
2GG/	gu-	1G	-te-	2.B\	-ne	.	.
.	.	.	.	.	.	4d\	p(ro)-
!	!	!	!	!	!	!LO:TX:t=P:problem=kreska pseudotaktowa	!
2.GG/	-ber-	.	.	.	.	2d\	-te-
.	.	.	.	4c\	.	.	.
*	*	*lig	*	*	*	*	*
!	!	!	!	!LO:TX:t=P:problem=kreska pseudotaktowa	!	!	!
.	.	1G	-cti-	1d	.	2g\	-cti-
4GG/	-na	.	.	.	.	.	.
!LO:TX:t=P:problem=kreska pseudotaktowa	!	!	!	!	!	!	!
2GG/	p(ro)-	.	.	.	.	1g\	-o-
!	!	!	!	!LO:SIC:v:t=custos G	!	!	!
!	!	!	!	!LO:LB:g=original	!	!	!
=49	=49	=49-	=49-	=49	=49	=49-	=49-
!	!	!	!	!LO:TX:t=P:problem=kreska pseudotaktowa	!	!	!
2D/	-tec-	1A	.	1r	.	.	.
!	!	!	!	!	!	!LO:TX:t=P:problem=kreska pseudotaktowa	!
!	!	!	!	!	!	!LO:TX:b:t=P:problem=# below	!
2D/	-ti-	.	.	.	.	2f#X\	.
*	*	*Xlig	*	*	*	*	*
1GG	-o-	1G	.	2G/	gu-	2g\	-ne
.	.	.	.	2.G/	-ber-	2d\	p(ro)-
=50-	=50-	=50-	=50-	=50-	=50-	=50-	=50-
!LO:TX:t=P:problem=kreska pseudotaktowa	!	!	!	!	!	!	!
1C	-ne	1E	-o-	.	.	4c/	-te-
.	.	.	.	4G/	-na	4c/	-cti-
!	!	!	!	!LO:TX:t=P:problem=kreska pseudotaktowa	!	!LO:TX:t=P:problem=kreska pseudotaktowa	!
.	.	.	.	2G/	p(ro)-	2c/	-o-
!	!	!LO:TX:t=P:problem=kreska pseudotaktowa	!	!	!	!	!
2C/	gu-	1E	-ne	2c\	-tec-	1G	-ne
2.C/	-ber-	.	.	2c\	-ti-	.	.
=51-	=51-	=51	=51	=51-	=51-	=51-	=51-
*	*	*lig	*	*	*	*	*
.	.	1G	ſal-	2.e\	-o-	2c/	gu-
4C/	-na	.	.	.	.	.	.
!LO:TX:t=P:problem=kreska pseudotaktowa	!	!	!	!	!	!	!
2C/	p(ro)-	.	.	.	.	2.c/	-ber-
.	.	.	.	8d\L	.	.	.
!	!	!	!	!LO:TX:t=P:problem=kreska pseudotaktowa	!	!	!
.	.	.	.	8e\J	.	.	.
2F\	-tec-	1A	.	2.f\	.	.	.
.	.	.	.	.	.	4c/	-na
!	!	!	!	!	!	!LO:TX:t=P:problem=kreska pseudotaktowa	!
2F\	-ti-	.	.	.	.	2c/	p(ro)-
.	.	.	.	4e\	.	.	.
*	*	*Xlig	*	*	*	*	*
=52-	=52-	=52-	=52-	=52-	=52-	=52	=52
!LO:TX:t=P:problem=kreska pseudotaktowa	!	!	!	!	!	!	!
*	*	*lig	*	*	*	*	*
1G	-o-	1B	.	4d\	.	2g\	-te-
.	.	.	.	4c\	.	.	.
.	.	.	.	2d\	.	2g\	-cti-
!LO:SIC:v:t=custos C	!	!	!	!	!	!	!
!LO:LB:g=original	!	!	!	!	!	!	!
!	!	!	!	!LO:TX:t=P:problem=kreska pseudotaktowa	!	!	!
2C/	-ne	1c	.	1c	-ne	1e	-o-
1AA/	ſal-	.	.	.	.	.	.
*	*	*Xlig	*	*	*	*	*
=53-	=53-	=53-	=53-	=53	=53	=53-	=53-
!	!	!LO:TX:t=P:problem=kreska pseudotaktowa	!	!	!	!	!
.	.	1B	-va	1r	.	2e\	-ne
2GG#X/	-va	.	.	.	.	2B/	p(ro)-
!LO:TX:t=P:problem=kreska pseudotaktowa	!	!	!	!	!	!	!
*	*	*lig	*	*	*	*	*
1AA	ſan-	1c	ſan-	2r	.	2A/	-te-
.	.	.	.	1A\	ſal-	2c/	-cti-
=54	=54	=54-	=54-	=54-	=54-	=54-	=54-
!LO:TX:t=P:problem=kreska pseudotaktowa	!	!	!	!	!	!	!
1EE	-cta	1B	.	.	.	1e	-o-
!	!	!	!	!LO:TX:t=P:problem=kreska pseudotaktowa	!	!	!
!	!	!	!	!LO:TX:b:t=P:problem=# below	!	!	!
.	.	.	.	2G#X/	-va	.	.
*	*	*Xlig	*	*	*	*	*
*	*	*lig	*	*	*	*	*
!	!	!	!	!	!	!LO:TX:t=P:problem=kreska pseudotaktowa	!
2.AA/	in-	1A	.	1A	ſan-	1c	-ne
4BB/	-ter-	.	.	.	.	.	.
=55-	=55-	=55-	=55-	=55-	=55-	=55	=55
!	!	!	!	!LO:TX:t=P:problem=kreska pseudotaktowa	!	!	!
4C/	-ceſ-	1G	.	1E	-cta	2r	.
4D/	-si-	.	.	.	.	.	.
2E\	-o-	.	.	.	.	1g	ſal-
*	*	*Xlig	*	*	*	*	*
1D	.	1A	.	2r	.	.	.
!	!	!	!	!	!	!LO:TX:b:t=P:problem=# below	!
.	.	.	.	2.d\	in-	2f#X\	-va
=56-	=56-	=56-	=56-	=56-	=56-	=56	=56
!LO:TX:t=P:problem=kreska pseudotaktowa	!	!LO:TX:t=P:problem=kreska pseudotaktowa	!	!	!	!LO:TX:t=P:problem=kreska pseudotaktowa	!
1GG	-ne	1G	-cta	.	.	1g	ſan-
.	.	.	.	4c\	-ter-	.	.
.	.	.	.	4B\	-ceſ-	.	.
!	!	!	!	!LO:TX:t=P:problem=kreska pseudotaktowa	!	!	!
.	.	.	.	4B\	-si-	.	.
!	!	!	!	!	!	!LO:SIC:v:t=custos c	!
!	!	!	!	!	!	!LO:LB:g=original	!
*	*	*lig	*	*	*	*	*
1r	.	1F	in-	1A	-o-	1c	-cta
=57-	=57-	=57-	=57-	=57-	=57-	=57-	=57-
2r	.	1G	.	1Gny	-ne	2.B/	in-
1G	ſal-	.	.	.	.	.	.
!	!	!	!	!	!	!LO:TX:t=P:problem=kreska pseudotaktowa	!
.	.	.	.	.	.	4c/	-ter-
*	*	*Xlig	*	*	*	*	*
!	!	!LO:SIC:v:t=custos A	!	!	!	!	!
!	!	!LO:LB:g=original	!	!	!	!	!
.	.	1A	.	2.D/	in-	4d\	-ceſ-
.	.	.	.	.	.	4e\	-si-
!LO:TX:t=P:problem=kreska pseudotaktowa	!	!	!	!	!	!	!
2F\	-va	.	.	.	.	2f\	-o-
!	!	!	!	!LO:TX:t=P:problem=kreska pseudotaktowa	!	!	!
.	.	.	.	4E/	-ter-	.	.
=58	=58	=58-	=58-	=58	=58	=58-	=58-
1A	ſan-	1D	-ter-	4F/	-ceſ-	2.d\	-ne
.	.	.	.	4G/	-si-	.	.
.	.	.	.	2A/	-o-	.	.
!	!	!	!	!	!	!LO:TX:t=P:problem=kreska pseudotaktowa	!
.	.	.	.	.	.	4c/	.
1E	-cta	1G	-ceſ-	1G	-ne	4B/	.
.	.	.	.	.	.	4A/	.
.	.	.	.	.	.	2B/	.
=59-	=59-	=59-	=59-	=59-	=59-	=59-	=59-
*	*	*lig	*	*	*	*	*
!	!	!	!	!	!	!LO:TX:t=P:problem=kreska pseudotaktowa	!
2.AA/	in-	1F	-si-	2r	.	1c	.
.	.	.	.	1A	ſal-	.	.
!LO:TX:t=P:problem=kreska pseudotaktowa	!	!	!	!	!	!	!
4BB/	-ter-	.	.	.	.	.	.
4C/	-ceſ-	1E	.	.	.	2r	.
4D/	-si-	.	.	.	.	.	.
!	!	!	!	!LO:TX:t=P:problem=kreska pseudotaktowa	!	!	!
2E\	-o-	.	.	2G/	-va	1g\	ſal-
*	*	*Xlig	*	*	*	*	*
!	!	!	!	!LO:SIC:v:t=custos A	!	!	!
!	!	!	!	!LO:PB:g=original	!	!	!
=60-	=60-	=60-	=60-	=60	=60	=60-	=60-
!LO:TX:t=P:problem=kreska pseudotaktowa	!	!	!	!	!	!	!
*	*	*lig	*	*	*	*	*
1A	-ne	1D	-o-	1A	ſan-	.	.
!	!	!	!	!	!	!LO:TX:b:t=P:problem=# below	!
.	.	.	.	.	.	2f#X\	-va
!	!	!	!	!LO:TX:t=P:problem=kreska pseudotaktowa	!	!	!
2r	.	1E	.	1E	-cta	1g	ſan-
2.E\	in-	.	.	.	.	.	.
*	*	*Xlig	*	*	*	*	*
=61-	=61-	=61-	=61-	=61	=61	=61-	=61-
*	*	*lig	*	*	*	*	*
!	!	!	!	!	!	!LO:TX:t=P:problem=kropka przez kreskę	!
!	!	!	!	!	!	!LO:TX:t=P:problem=kreska pseudotaktowa	!
.	.	1E	-ne	2.e\	in-	1.c	-cta
4D/	-ter-	.	.	.	.	.	.
4C/	-ceſ-	.	.	.	.	.	.
4BB/	-si-	.	.	4d\	-ter-	.	.
!	!	!LO:TX:t=P:problem=kreska pseudotaktowa	!	!	!	!	!
2AA/	-o-	1F	.	4c\	-ceſ-	.	.
.	.	.	.	4B\	-si-	.	.
!LO:TX:t=P:problem=kreska pseudotaktowa	!	!	!	!	!	!	!
2D/	.	.	.	2A/	-o-	2.d\	in
*	*	*Xlig	*	*	*	*	*
=62	=62	=62	=62	=62-	=62-	=62-	=62-
!	!	!	!	!LO:TX:t=P:problem=kreska pseudotaktowa	!	!	!
2GG,>/	-ne	1G	Al-	1B	-ne	.	.
.	.	.	.	.	.	4c/	ter-
1G	ſal-	.	.	.	.	4B/	-ceſ-
.	.	.	.	.	.	4B/	-si-
*	*	*lig	*	*	*	*	*
.	.	1D	-le-	2r	.	1A	-o-
!LO:TX:b:t=P:problem=# below	!	!	!	!	!	!	!
!LO:TX:t=P:problem=kreska pseudotaktowa	!	!	!	!	!	!	!
2F#X\	-va	.	.	2.d\	in-	.	.
!LO:SIC:v:t=custos G	!	!	!	!	!	!	!
!LO:LB:g=original	!	!	!	!	!	!	!
=63	=63	=63-	=63-	=63-	=63-	=63-	=63-
!	!	!	!	!	!	!LO:TX:t=P:problem=kreska pseudotaktowa	!
1G	ſan-	1E	.	.	.	1G	-ne.
.	.	.	.	4c\	-ter-	.	.
.	.	.	.	4B\	-ceſ-	.	.
!	!	!	!	!LO:TX:t=P:problem=kreska pseudotaktowa	!	!	!
.	.	.	.	4A/	-si-	.	.
*	*	*Xlig	*	*	*	*	*
2C/	-cta	1E	-lu-	2G/	-o-	2r	.
2.AA/	in-	.	.	2A/	.	2.e\	Al-
=64-	=64-	=64-	=64-	=64-	=64-	=64-	=64-
!	!	!	!	!LO:TX:t=P:problem=kreska pseudotaktowa	!	!	!
.	.	[0El;>	-ia	1E	-ne	.	.
4BB/	-ter-	.	.	.	.	4e\	-le
!	!	!	!	!	!	!LO:TX:t=P:problem=kreska pseudotaktowa	!
4C/	-ceſ-	.	.	.	.	2c/	lu-
!LO:TX:t=P:problem=kreska pseudotaktowa	!	!	!	!	!	!	!
4D/	-si-	.	.	.	.	.	.
1E	-o-	.	.	2r	.	2B/	-ia
*	*	*	*	*	*	*	*ij
.	.	.	.	2.e\	Al-	2G/	Al-
=65-	=65-	=65-	=65-	=65-	=65-	=65-	=65-
2AA,>/	-ne	0E_	.	.	.	2.A/	-le-
.	.	.	.	4e\	-le-	.	.
!	!	!	!	!LO:TX:t=P:problem=kreska pseudotaktowa	!	!	!
2.AA/	Al-	.	.	2c\	-lu-	.	.
!	!	!	!	!	!	!LO:TX:t=P:problem=kreska pseudotaktowa	!
.	.	.	.	.	.	4B/	-lu-
.	.	.	.	2.A/	-ia	2c/	-ia
*	*	*	*	*	*	*	*Xij
4AA/	-le-	.	.	.	.	.	.
!	!	!	!	!	!	!LO:SIC:v:t=custos e	!
!	!	!	!	!	!	!LO:LB:g=original	!
!LO:TX:t=P:problem=kreska pseudotaktowa	!	!	!	!	!	!LO:TX:t=P:problem=kreska pseudotaktowa	!
2C/	-lu-	.	.	.	.	[y2e\	Al-
.	.	.	.	4B\	.	.	.
=66	=66	=66-	=66-	=66-	=66-	=66	=66
!	!	!	!	!	!	!LO:N:xstem:cue	!
2AA/	-ia	0E_	.	4c\	.	4e]	.
.	.	.	.	4A/	.	4e\	-le-
*	*ij	*	*	*	*	*	*
!	!	!	!	!LO:TX:t=P:problem=kreska pseudotaktowa	!	!LO:TX:t=P:problem=kreska pseudotaktowa	!
2.E\	Al-	.	.	2B\	.	2g\	-lu-
.	.	.	.	2r	.	2e\	-ia
4E\	-le-	.	.	.	.	.	.
*	*	*	*	*	*	*	*ij
!LO:TX:t=P:problem=kreska pseudotaktowa	!	!	!	!	!	!	!
2G\	-lu-	.	.	2.B\	Al-	2.e\	Al-
=67	=67	=67-	=67-	=67-	=67-	=67-	=67-
2E\	-ia	0E_	.	.	.	.	.
*	*Xij	*	*	*	*	*	*
.	.	.	.	4B\	-le-	4e\	-le-
!	!	!	!	!LO:TX:t=P:problem=kreska pseudotaktowa	!	!LO:TX:t=P:problem=kreska pseudotaktowa	!
2.E\	Al-	.	.	2c\	-lu-	2c/	-lu-
.	.	.	.	2B\	-ia	1G	-ia
*	*	*	*	*	*	*	*Xij
4E\	-le-	.	.	.	.	.	.
*	*	*	*	*	*ij	*	*
2C/	-lu-	.	.	2.e\	Al-	.	.
=68-	=68-	=68-	=68-	=68-	=68-	=68-	=68-
2AA/	-ia	0E_	.	.	.	2r	.
.	.	.	.	4e\	-le-	.	.
!	!	!	!	!LO:TX:t=P:problem=kreska pseudotaktowa	!	!LO:TX:t=P:problem=kreska pseudotaktowa	!
1AA	Al-	.	.	2c\	-lu-	2.A/	Al-
.	.	.	.	2A/	-ia	.	.
*	*	*	*	*	*Xij	*	*
.	.	.	.	.	.	4A/	-le-
!LO:TX:b:t=P:problem=# below	!	!	!	!	!	!	!
!LO:TX:t=P:problem=kreska pseudotaktowa	!	!	!	!	!	!LO:TX:t=P:problem=kreska pseudotaktowa	!
2GG#X/	-le-	.	.	1E/	Al-	2B/	-lu-
=69	=69	=69-	=69-	=69-	=69-	=69-	=69-
2.AA/	-lu-	0E_	.	.	.	2c/	-ia.
*	*	*	*	*	*	*	*ij
.	.	.	.	1E	-le-	2.e\	Al-
4BB/	.	.	.	.	.	.	.
2C/	.	.	.	.	.	.	.
.	.	.	.	.	.	4e\	-le-
2AA/	.	.	.	1A\	-lu-	2c/	-lu-
=70-	=70-	=70-	=70-	=70-	=70-	=70-	=70-
[00E\l	-ia.	00E_	.	.	.	[00B/l	-ia.
*	*	*	*	*	*	*	*Xij
!	!	!	!	!LO:TX:b:t=P:problem=# below	!	!	!
.	.	.	.	2G#X/	.	.	.
.	.	.	.	00G#\	-ia:	.	.
1E]	.	1E]	.	.	.	1B]	.
==	==	==	==	==	==	==	==
*-	*-	*-	*-	*-	*-	*-	*-
!!!system-decoration: [(g1)]
!!!RDF**kern: l = terminal long
!!!RDF**kern: > = above
!!!RDF**kern: < = below
!!!AIN: 1 alto 1 bass 1 soprn 1 tenor
!!!ENC: Berenika Jozajtis
!!!END: 2022-01-05
!!!EED: Jędrzej Mróz
!!!EST: 2022-01-07
